source/img/sprite/reddit-icon.svg

<svg width="22" height="22" viewBox="0 0 22 22" fill="none" xmlns="http://www.w3.org/2000/svg">
<path d="M12.9453 0.5C12.304 0.5 11.7021 0.84161 11.3161 1.33425C10.9301 1.82688 10.7173 2.4274 10.5623 3.06027C10.3161 4.07791 10.2401 5.20702 10.2219 6.22466C8.41944 6.35051 6.78722 6.91147 5.43159 7.77808C4.88143 7.29264 4.21882 7.02295 3.58356 7.03014C2.86015 7.03733 2.17322 7.36455 1.66258 8.03699C0.686888 9.32072 0.799351 11.4207 1.93005 12.6685C1.86015 13.0533 1.80847 13.4488 1.80847 13.8479C1.80847 18.0767 5.92399 21.5 11 21.5C16.076 21.5 20.1915 18.0731 20.1915 13.8479C20.1915 13.4488 20.1399 13.0533 20.0699 12.6685C21.2006 11.4207 21.3131 9.32072 20.3374 8.03699C19.8268 7.36455 19.1399 7.03733 18.4164 7.03014C17.7812 7.02295 17.1186 7.29264 16.5684 7.77808C15.2189 6.91507 13.5958 6.35411 11.8024 6.22466C11.8268 5.28613 11.8906 4.31164 12.0699 3.57808C12.1824 3.11781 12.3161 2.78339 12.459 2.6C12.6018 2.41661 12.7052 2.3411 12.9453 2.3411C13.4651 2.3411 13.5319 2.51729 13.845 2.94521C14.0031 3.16096 14.1854 3.43065 14.4772 3.69315C14.769 3.95565 15.2006 4.18219 15.6687 4.18219V2.3411C15.538 2.3411 15.5137 2.3375 15.4256 2.25479C15.3374 2.17209 15.2158 1.98151 15.0365 1.73699C14.6778 1.24435 13.9818 0.5 12.9453 0.5ZM18.0031 0.672603C16.7933 0.672603 15.8146 1.83048 15.8146 3.26164C15.8146 4.69281 16.7933 5.85069 18.0031 5.85069C19.2128 5.85069 20.1915 4.69281 20.1915 3.26164C20.1915 1.83048 19.2128 0.672603 18.0031 0.672603ZM18.0031 1.59315C18.7812 1.59315 19.4134 2.3411 19.4134 3.26164C19.4134 4.18219 18.7812 4.93014 18.0031 4.93014C17.225 4.93014 16.5927 4.18219 16.5927 3.26164C16.5927 2.3411 17.225 1.59315 18.0031 1.59315ZM11 7.66301C15.307 7.66301 18.9514 10.5002 18.9514 13.8479C18.9514 17.1993 15.307 20.0329 11 20.0329C6.69299 20.0329 3.0486 17.1993 3.0486 13.8479C3.0486 10.5002 6.69299 7.66301 11 7.66301ZM3.60787 8.49726C3.82368 8.50086 4.0486 8.55839 4.26441 8.66986C3.48325 9.37106 2.86319 10.1765 2.44069 11.0863C2.1489 10.3743 2.22793 9.48613 2.58659 9.01507C2.84799 8.66986 3.20969 8.49366 3.60787 8.49726ZM18.3921 8.49726C18.7903 8.49366 19.152 8.66986 19.4134 9.01507C19.7721 9.48613 19.8511 10.3743 19.5593 11.0863C19.1368 10.1765 18.5167 9.37106 17.7356 8.66986C17.9514 8.55839 18.1763 8.50086 18.3921 8.49726ZM7.88753 10.7986C7.10941 10.7986 6.47719 11.5466 6.47719 12.4671C6.47719 13.3877 7.10941 14.1356 7.88753 14.1356C8.66564 14.1356 9.29786 13.3877 9.29786 12.4671C9.29786 11.5466 8.66564 10.7986 7.88753 10.7986ZM14.1125 10.7986C13.3344 10.7986 12.7021 11.5466 12.7021 12.4671C12.7021 13.3877 13.3344 14.1356 14.1125 14.1356C14.8906 14.1356 15.5228 13.3877 15.5228 12.4671C15.5228 11.5466 14.8906 10.7986 14.1125 10.7986ZM7.13372 16.4658C7.62917 17.6776 9.16109 18.8534 11 18.8534C12.8389 18.8534 14.3952 17.6776 14.8906 16.4658C13.9909 17.1526 12.5714 17.6164 11 17.6164C9.42857 17.6164 8.03342 17.1526 7.13372 16.4658Z" fill="#030A1A"/>
</svg>

<svg viewBox="0 0 22 22" fill="none" xmlns="http://www.w3.org/2000/svg"><path d="M12.95.5a2.1 2.1 0 0 0-1.63.83c-.39.5-.6 1.1-.76 1.73a14.94 14.94 0 0 0-.34 3.16c-1.8.13-3.43.7-4.79 1.56a2.8 2.8 0 0 0-1.85-.75 2.4 2.4 0 0 0-1.92 1 3.8 3.8 0 0 0 .27 4.64c-.07.38-.12.78-.12 1.18 0 4.23 4.11 7.65 9.19 7.65 5.08 0 9.2-3.43 9.2-7.65 0-.4-.06-.8-.13-1.18a3.8 3.8 0 0 0 .27-4.63 2.4 2.4 0 0 0-1.92-1.01c-.64 0-1.3.26-1.85.75a10.18 10.18 0 0 0-4.77-1.56c.03-.93.1-1.9.27-2.64.11-.46.25-.8.39-.98.14-.18.25-.26.49-.26.52 0 .58.18.9.6.15.22.34.5.63.75.29.27.72.5 1.19.5v-1.85c-.13 0-.16 0-.24-.09-.1-.08-.21-.27-.4-.51-.35-.5-1.05-1.24-2.08-1.24Zm5.05.17c-1.2 0-2.19 1.16-2.19 2.6 0 1.42.98 2.58 2.2 2.58 1.2 0 2.18-1.16 2.18-2.59s-.98-2.59-2.19-2.59Zm0 .92c.78 0 1.41.75 1.41 1.67 0 .92-.63 1.67-1.4 1.67-.79 0-1.42-.75-1.42-1.67 0-.92.64-1.67 1.41-1.67Zm-7 6.07c4.3 0 7.95 2.84 7.95 6.19 0 3.35-3.64 6.18-7.95 6.18-4.3 0-7.95-2.83-7.95-6.18 0-3.35 3.64-6.19 7.95-6.19Zm-7.4.84c.22 0 .45.06.66.17a7.5 7.5 0 0 0-1.82 2.42c-.3-.72-.21-1.6.15-2.07a1.2 1.2 0 0 1 1.02-.52Zm14.8 0c.39 0 .75.17 1.01.52.36.47.44 1.35.15 2.07a7.5 7.5 0 0 0-1.82-2.42c.21-.11.44-.17.65-.17Zm-10.51 2.3c-.78 0-1.41.75-1.41 1.67 0 .92.63 1.67 1.4 1.67.79 0 1.42-.75 1.42-1.67 0-.92-.63-1.67-1.41-1.67Zm6.22 0c-.78 0-1.4.75-1.4 1.67 0 .92.62 1.67 1.4 1.67.78 0 1.41-.75 1.41-1.67 0-.92-.63-1.67-1.4-1.67Zm-6.98 5.67a4.26 4.26 0 0 0 3.87 2.38 4.3 4.3 0 0 0 3.9-2.38 6.58 6.58 0 0 1-3.9 1.15 6.5 6.5 0 0 1-3.87-1.15Z" fill="#030A1A"/></svg>
